static/images/videoShare.svg

<svg xmlns="http://www.w3.org/2000/svg" width="30" height="30" fill="none"><path fill="#fff" d="M23.3 16.3v3.9c0 2.3-2 4.2-4.3 4.2h-7.7c-2.4 0-4.3-1.9-4.3-4.2v-3.9c0-2.3 2-4.2 4.3-4.2h.4c.5 0 .9.4.9.8s-.4.8-.9.8h-.4c-1.5 0-2.6 1.1-2.6 2.5v3.9c0 1.4 1.2 2.5 2.6 2.5H19c1.5 0 2.6-1.1 2.6-2.5v-3.9c0-1.4-1.2-2.5-2.6-2.5h-.4c-.5 0-.9-.4-.9-.8s.4-.8.9-.8h.4c2.4 0 4.3 1.9 4.3 4.2Z"/><path fill="#fff" d="M18.7 9.8c0 .2-.1.4-.3.6-.4.3-.9.3-1.2 0L15.9 9v7.5c0 .5-.4.8-.8.8s-.8-.4-.8-.8V9L13 10.4c-.3.3-.8.4-1.2 0-.2-.1-.3-.3-.3-.6 0-.2 0-.4.2-.6l2.8-2.9c.3-.4 1-.4 1.3 0l2.8 3c.1.2.2.4.2.6l-.1-.1Z"/></svg>

<svg width="30" height="30" viewBox="0 0 30 30" fill="none" xmlns="http://www.w3.org/2000/svg">
<path d="M23.3 16.3V20.2C23.3 22.5 21.3 24.4 19 24.4H11.3C8.9 24.4 7 22.5 7 20.2V16.3C7 14 9 12.1 11.3 12.1H11.7C12.2 12.1 12.6 12.5 12.6 12.9C12.6 13.3 12.2 13.7 11.7 13.7H11.3C9.8 13.7 8.7 14.8 8.7 16.2V20.1C8.7 21.5 9.9 22.6 11.3 22.6H19C20.5 22.6 21.6 21.5 21.6 20.1V16.2C21.6 14.8 20.4 13.7 19 13.7H18.6C18.1 13.7 17.7 13.3 17.7 12.9C17.7 12.5 18.1 12.1 18.6 12.1H19C21.4 12.1 23.3 14 23.3 16.3Z" fill="white"/>
<path d="M18.7 9.8C18.7 10 18.6 10.2 18.4 10.4C18 10.7 17.5 10.7 17.2 10.4L15.9 9V16.5C15.9 17 15.5 17.3 15.1 17.3C14.7 17.3 14.3 16.9 14.3 16.5V9L13 10.4C12.7 10.7 12.2 10.8 11.8 10.4C11.6 10.3 11.5 10.1 11.5 9.8C11.5 9.6 11.5 9.4 11.7 9.2L14.5 6.3C14.8 5.9 15.5 5.9 15.8 6.3L18.6 9.3C18.7 9.5 18.8 9.7 18.8 9.9L18.7 9.8Z" fill="white"/>
</svg>
